logos/rudr.svg

<?xml version="1.0" encoding="UTF-8"?>
<svg width="106px" height="129px" viewBox="0 0 106 129" version="1.1" xmlns="http://www.w3.org/2000/svg" xmlns:xlink="http://www.w3.org/1999/xlink">
    <!-- Generator: Sketch 51.3 (57544) - http://www.bohemiancoding.com/sketch -->
    <title>RUDR</title>
    <desc>Created with Sketch.</desc>
    <defs></defs>
    <g id="RUDR" stroke="none" stroke-width="1" fill="none" fill-rule="evenodd">
        <path d="M36.2346858,98.906 C36.5633528,98.906 36.9306858,98.939833 37.3366858,99.0075 C37.7426858,99.075167 38.1486858,99.1863339 38.5546858,99.341 L37.3366858,102.473 C37.1433528,102.376333 36.9065197,102.299 36.6261858,102.241 C36.3458528,102.183 36.0510197,102.154 35.7416858,102.154 C34.9296858,102.154 34.2723523,102.352167 33.7696858,102.7485 C33.2670193,103.144833 32.8803528,103.565333 32.6096858,104.01 L32.6096858,113 L29.1296858,113 L29.1296858,99.254 L32.4356858,99.254 L32.4356858,101.255 C32.7643523,100.655667 33.2476858,100.114334 33.8856858,99.631 C34.5236858,99.147667 35.3066858,98.906 36.2346858,98.906 Z M45.3696858,113.348 C44.7316858,113.348 44.1081858,113.232 43.4991858,113 C42.8901858,112.768 42.3536858,112.429667 41.8896858,111.985 C41.4256858,111.540333 41.0535188,110.999 40.7731858,110.361 C40.4928528,109.723 40.3526858,108.988333 40.3526858,108.157 L40.3526858,99.254 L43.8326858,99.254 L43.8326858,107.2 C43.8326858,108.224667 44.0646858,108.964167 44.5286858,109.4185 C44.9926858,109.872833 45.6210193,110.1 46.4136858,110.1 C47.1483528,110.1 47.7380197,109.930833 48.1826858,109.5925 C48.6273528,109.254167 48.9946858,108.862667 49.2846858,108.418 L49.2846858,99.254 L52.7646858,99.254 L52.7646858,113 L49.5166858,113 L49.5166858,110.999 C49.3426858,111.269667 49.1300188,111.545167 48.8786858,111.8255 C48.6273528,112.105833 48.3276858,112.357167 47.9796858,112.5795 C47.6316858,112.801833 47.2401858,112.9855 46.8051858,113.1305 C46.3701858,113.2755 45.8916858,113.348 45.3696858,113.348 Z M65.9016858,104.068 C65.6116858,103.565333 65.1960188,103.120666 64.6546858,102.734 C64.1133528,102.347333 63.4173528,102.154 62.5666858,102.154 C61.4260193,102.154 60.5221858,102.531 59.8551858,103.285 C59.1881858,104.039 58.8546858,104.986333 58.8546858,106.127 C58.8546858,107.267667 59.1881858,108.215 59.8551858,108.969 C60.5221858,109.723 61.4260193,110.1 62.5666858,110.1 C63.4173528,110.1 64.1133528,109.906667 64.6546858,109.52 C65.1960188,109.133333 65.6116858,108.688667 65.9016858,108.186 L65.9016858,104.068 Z M69.3816858,113 L66.1626858,113 L66.1626858,111.202 C65.8146858,111.762667 65.2926858,112.2605 64.5966858,112.6955 C63.9006858,113.1305 63.0306858,113.348 61.9866858,113.348 C61.0973523,113.348 60.2515188,113.169167 59.4491858,112.8115 C58.6468523,112.453833 57.9411858,111.956 57.3321858,111.318 C56.7231858,110.68 56.2350193,109.916333 55.8676858,109.027 C55.5003523,108.137667 55.3166858,107.171 55.3166858,106.127 C55.3166858,105.063667 55.5003523,104.092167 55.8676858,103.2125 C56.2350193,102.332833 56.7231858,101.574 57.3321858,100.936 C57.9411858,100.298 58.6516858,99.800167 59.4636858,99.4425 C60.2756858,99.084833 61.1166858,98.906 61.9866858,98.906 C62.9726858,98.906 63.7846858,99.0945 64.4226858,99.4715 C65.0606858,99.8485 65.5536858,100.259333 65.9016858,100.704 L65.9016858,91.076 L69.3816858,91.076 L69.3816858,113 Z M80.3726858,98.906 C80.7013528,98.906 81.0686858,98.939833 81.4746858,99.0075 C81.8806858,99.075167 82.2866858,99.1863339 82.6926858,99.341 L81.4746858,102.473 C81.2813528,102.376333 81.0445197,102.299 80.7641858,102.241 C80.4838528,102.183 80.1890197,102.154 79.8796858,102.154 C79.0676858,102.154 78.4103523,102.352167 77.9076858,102.7485 C77.4050193,103.144833 77.0183528,103.565333 76.7476858,104.01 L76.7476858,113 L73.2676858,113 L73.2676858,99.254 L76.5736858,99.254 L76.5736858,101.255 C76.9023523,100.655667 77.3856858,100.114334 78.0236858,99.631 C78.6616858,99.147667 79.4446858,98.906 80.3726858,98.906 Z" id="rudr" fill="#344155"></path>
        <polygon id="Path-9" stroke="#2681D6" stroke-width="3" fill-rule="nonzero" points="19 14 85.0701858 14 85.0701858 78.671875"></polygon>
        <path d="M81.6102882,75.0146484 L23.5575538,75.0146484 L23.5575538,19.3071162" id="Path-10" stroke="#2681D6" stroke-width="3" stroke-dasharray="4" fill-rule="nonzero"></path>
        <path d="M25.9364601,19.8359375 L84.3524761,19.8359375" id="Path-11" stroke="#2681D6" stroke-width="2" opacity="0.5" fill-rule="nonzero"></path>
    </g>
</svg>

<svg width="106" height="129" xmlns="http://www.w3.org/2000/svg"><g fill="none" fill-rule="evenodd"><path d="M36.235 98.906a6.761 6.761 0 012.32.435l-1.218 3.132a2.918 2.918 0 00-.71-.232 4.357 4.357 0 00-.885-.087c-.812 0-1.47.198-1.972.595-.503.396-.89.816-1.16 1.261V113h-3.48V99.254h3.306v2.001c.328-.6.812-1.14 1.45-1.624.638-.483 1.42-.725 2.349-.725zm9.135 14.442A5.214 5.214 0 0143.5 113a4.74 4.74 0 01-1.61-1.015 5.01 5.01 0 01-1.117-1.624c-.28-.638-.42-1.373-.42-2.204v-8.903h3.48v7.946c0 1.025.232 1.764.696 2.218.464.455 1.092.682 1.885.682.734 0 1.324-.17 1.769-.507.444-.339.812-.73 1.102-1.175v-9.164h3.48V113h-3.248v-2.001a6.57 6.57 0 01-.638.827c-.252.28-.551.531-.9.754a5.206 5.206 0 01-1.174.55 4.517 4.517 0 01-1.435.218zm20.532-9.28c-.29-.503-.706-.947-1.247-1.334-.542-.387-1.238-.58-2.088-.58-1.141 0-2.045.377-2.712 1.131-.667.754-1 1.701-1 2.842 0 1.14.333 2.088 1 2.842s1.571 1.131 2.712 1.131c.85 0 1.546-.193 2.088-.58.541-.387.957-.831 1.247-1.334v-4.118zm3.48 8.932h-3.22v-1.798c-.347.56-.87 1.058-1.565 1.493-.696.436-1.566.653-2.61.653a6.16 6.16 0 01-2.538-.537 6.634 6.634 0 01-2.117-1.493 7.33 7.33 0 01-1.464-2.291c-.368-.89-.551-1.856-.551-2.9 0-1.063.183-2.035.55-2.914a7.373 7.373 0 011.465-2.277 6.59 6.59 0 012.132-1.494 6.196 6.196 0 012.523-.536c.986 0 1.798.188 2.436.566.638.377 1.13.787 1.479 1.232v-9.628h3.48V113zm10.99-14.094a6.761 6.761 0 012.32.435l-1.217 3.132a2.918 2.918 0 00-.71-.232 4.357 4.357 0 00-.885-.087c-.812 0-1.47.198-1.972.595-.503.396-.89.816-1.16 1.261V113h-3.48V99.254h3.306v2.001c.328-.6.812-1.14 1.45-1.624.638-.483 1.42-.725 2.349-.725z" fill="#344155"/><path stroke="#2681D6" stroke-width="3" fill-rule="nonzero" d="M19 14h66.07v64.672z"/><path d="M81.61 75.015H23.558V19.307" stroke="#2681D6" stroke-width="3" stroke-dasharray="4" fill-rule="nonzero"/><path d="M25.936 19.836h58.416" stroke="#2681D6" stroke-width="2" opacity=".5" fill-rule="nonzero"/></g></svg>
